X: 1
T: Neil Gerroir
C: Brenda Stubbert
R: jig
S: Fiddle Hell Online 2021-5-18 Wendy McIsaac workshop handout
Z: 2021 John Chambers <jc:trillian.mit.edu>
M: 6/8
L: 1/8
K: G	% and D
Bc !segno!\
| dBd cge | dBG {A}GFG | AFD cBA | Bcd cde |\
| dBd cge | dBG {A}GFG | AFD cBA |1 {D}G3 G :|2 {D}G3 {A}G ||
K: D
|: FG \
| AFA Gag | fed {e}dcd | ecA gfe | fdB AFG |\
| AFA Gag | fed {e}dcd | efg B2c |1 d3 {e}d :|2 d3 "_D.S."=c |]
